X:1
T: My Lame Leg
C:
R:Jig
Q:180
K:Am
M:6/8
L:1/16
|:A2B2d2 e4A2|^f4d2 e4A2|A2B2d2 e4A2|g4e2 d2B2G2|
A2B2d2 e4A2|^f4d2 e4g2|g2a2g2 g2^f2e2|d2B2g2 d2B2G2:|
|:g2a2g2 g2^f2e2|^f4g2 a4f2|g2a2g2 g2^f2e2|d2B2g2 d2B2G2|
g2a2g2 g2^f2e2|^f4g2 a4b2|b2a2g2 g2^f2e2|d2B2g2 d2B2G2:|
